src/images_karasa_jaga_svg/cmd/sc_symbolshapes.octagon-bevel.svg

<svg height="16" viewBox="0 0 16 16" width="16" xmlns="http://www.w3.org/2000/svg" xmlns:xlink="http://www.w3.org/1999/xlink"><linearGradient id="a" gradientUnits="userSpaceOnUse" x1="16.871439" x2="109.96104" xlink:href="#e" y1="60.428368" y2="60.428368"/><linearGradient id="b" gradientUnits="userSpaceOnUse" x1="55.106628" x2="58.608353" y1="112.6795" y2="7.739506"><stop offset="0" stop-color="#fff"/><stop offset=".59375" stop-color="#fff"/><stop offset=".84375" stop-color="#f1f1f1"/><stop offset=".90625" stop-color="#eaeaea"/><stop offset="1" stop-color="#dfdfdf"/></linearGradient><linearGradient id="c" gradientUnits="userSpaceOnUse" x1="29.905518" x2="37.905518" xlink:href="#e" y1="83.919106" y2="83.919106"/><linearGradient id="d" gradientUnits="userSpaceOnUse" x1="79.919106" x2="87.919106" xlink:href="#e" y1="33.905518" y2="33.905518"/><linearGradient id="e"><stop offset="0" stop-color="#7c9fcf"/><stop offset=".5" stop-color="#7c9ece"/><stop offset="1" stop-color="#7b9dcf"/></linearGradient><path d="m46.181641 7.4140625a6.4727375 6.4727375 0 0 0 -4.636719 1.7402344l-27.800781 25.9746091a6.4727375 6.4727375 0 0 0 -2.050782 4.509766l-1.291015 38.02539a6.4727375 6.4727375 0 0 0 1.740234 4.636719l25.97461 27.798829a6.4727375 6.4727375 0 0 0 4.509765 2.05078l38.025391 1.29102a6.4727375 6.4727375 0 0 0 4.636718-1.74024l27.798828-25.974608a6.4727375 6.4727375 0 0 0 2.05078-4.509765l1.29102-38.023438a6.4727375 6.4727375 0 0 0 -1.74024-4.636718l-25.974606-27.800782a6.4727375 6.4727375 0 0 0 -4.509766-2.0507809z" fill="url(#a)" transform="matrix(.1522985 -.00508203 .00508203 .1522985 -1.965265 -.880767)"/><path d="m80.870539 106.97317-38.024391-1.2906-25.974709-27.799904 1.290604-38.024391 27.799899-25.974709 38.024391 1.290604 25.974707 27.799899-1.2906 38.024391z" fill="url(#b)" transform="matrix(.1522985 -.00508203 .00508203 .1522985 -1.965265 -.880767)"/><path d="m29.905518 19.919104h8v127.999996h-8z" fill="url(#c)" transform="matrix(.11506311 .04884139 .04884139 -.11506311 .000032 16.000099)"/><path d="m79.919106-30.094481h8v128h-8z" fill="url(#d)" transform="matrix(.11506311 -.04884139 -.04884139 -.11506311 .000032 16.000099)"/><path d="m29.905518 19.919104h8v127.999996h-8z" fill="url(#c)" transform="matrix(.04884139 .11506311 -.11506311 .04884139 16.000032 .000099)"/><path d="m79.919106-30.094481h8v128h-8z" fill="url(#d)" transform="matrix(-.04884139 .11506311 -.11506311 -.04884139 16.000032 .000099)"/><path d="m46.181641 7.4140625a6.4727375 6.4727375 0 0 0 -4.636719 1.7402344l-27.800781 25.9746091a6.4727375 6.4727375 0 0 0 -2.050782 4.509766l-1.291015 38.02539a6.4727375 6.4727375 0 0 0 1.740234 4.636719l25.97461 27.798829a6.4727375 6.4727375 0 0 0 4.509765 2.05078l38.025391 1.29102a6.4727375 6.4727375 0 0 0 4.636718-1.74024l27.798828-25.974608a6.4727375 6.4727375 0 0 0 2.05078-4.509765l1.29102-38.023438a6.4727375 6.4727375 0 0 0 -1.74024-4.636718l-25.974606-27.800782a6.4727375 6.4727375 0 0 0 -4.509766-2.0507809z" fill="url(#a)" transform="matrix(.09544078 -.00318475 .00318475 .09544078 1.755075 2.434697)"/><path d="m80.870539 106.97317-38.024391-1.2906-25.974709-27.799904 1.290604-38.024391 27.799899-25.974709 38.024391 1.290604 25.974707 27.799899-1.2906 38.024391z" fill="url(#b)" transform="matrix(.08678702 -.00289598 .00289598 .08678702 2.321314 2.939317)"/></svg>

<?xml version="1.0" encoding="UTF-8" standalone="no"?>
<!-- Created with Inkscape (http://www.inkscape.org/) -->

<svg
   xmlns:dc="http://purl.org/dc/elements/1.1/"
   xmlns:cc="http://creativecommons.org/ns#"
   xmlns:rdf="http://www.w3.org/1999/02/22-rdf-syntax-ns#"
   xmlns:svg="http://www.w3.org/2000/svg"
   xmlns="http://www.w3.org/2000/svg"
   xmlns:xlink="http://www.w3.org/1999/xlink"
   xmlns:sodipodi="http://sodipodi.sourceforge.net/DTD/sodipodi-0.dtd"
   xmlns:inkscape="http://www.inkscape.org/namespaces/inkscape"
   version="1.1"
   id="svg2"
   width="128"
   height="128"
   viewBox="0 0 128 128"
   sodipodi:docname="sc_symbolshapes.octagon-bevel.svg"
   inkscape:export-filename="/home/rizmut/Dokumen/Rizmut/Github/libreoffice-style-karasa-jaga/build/images_karasa_jaga/cmd/sc_symbolshapes.octagon-bevel.png"
   inkscape:export-xdpi="12"
   inkscape:export-ydpi="12"
   inkscape:version="0.92.3 (unknown)">
  <metadata
     id="metadata8">
    <rdf:RDF>
      <cc:Work
         rdf:about="">
        <dc:format>image/svg+xml</dc:format>
        <dc:type
           rdf:resource="http://purl.org/dc/dcmitype/StillImage" />
        <dc:title></dc:title>
      </cc:Work>
    </rdf:RDF>
  </metadata>
  <defs
     id="defs6">
    <linearGradient
       id="linearGradient3369">
      <stop
         id="stop3372"
         offset="0"
         style="stop-color:#ffffff;stop-opacity:1;" />
      <stop
         style="stop-color:#ffffff;stop-opacity:1;"
         offset="0.59375"
         id="stop3374" />
      <stop
         style="stop-color:#f1f1f1;stop-opacity:1;"
         offset="0.84375"
         id="stop3376" />
      <stop
         id="stop3378"
         offset="0.90625"
         style="stop-color:#eaeaea;stop-opacity:1;" />
      <stop
         id="stop3384"
         offset="1"
         style="stop-color:#dfdfdf;stop-opacity:1;" />
    </linearGradient>
    <linearGradient
       id="linearGradient7422">
      <stop
         style="stop-color:#7c9fcf;stop-opacity:1"
         offset="0"
         id="stop7424" />
      <stop
         id="stop5348"
         offset="0.5"
         style="stop-color:#7c9ece;stop-opacity:1" />
      <stop
         id="stop7426"
         offset="1"
         style="stop-color:#7b9dcf;stop-opacity:1" />
    </linearGradient>
    <linearGradient
       inkscape:collect="always"
       xlink:href="#linearGradient3369"
       id="linearGradient1322"
       x1="55.106628"
       y1="112.6795"
       x2="58.608353"
       y2="7.7395062"
       gradientUnits="userSpaceOnUse" />
    <linearGradient
       inkscape:collect="always"
       xlink:href="#linearGradient7422"
       id="linearGradient1332"
       x1="16.871439"
       y1="60.428368"
       x2="109.96104"
       y2="60.428368"
       gradientUnits="userSpaceOnUse" />
    <linearGradient
       inkscape:collect="always"
       xlink:href="#linearGradient7422"
       id="linearGradient1340"
       gradientUnits="userSpaceOnUse"
       x1="16.871439"
       y1="60.428368"
       x2="109.96104"
       y2="60.428368" />
    <linearGradient
       inkscape:collect="always"
       xlink:href="#linearGradient3369"
       id="linearGradient1342"
       gradientUnits="userSpaceOnUse"
       x1="55.106628"
       y1="112.6795"
       x2="58.608353"
       y2="7.7395062" />
    <linearGradient
       inkscape:collect="always"
       xlink:href="#linearGradient7422"
       id="linearGradient1352"
       x1="56"
       y1="64"
       x2="64"
       y2="64"
       gradientUnits="userSpaceOnUse"
       gradientTransform="translate(-26.094482,19.919103)" />
    <linearGradient
       inkscape:collect="always"
       xlink:href="#linearGradient7422"
       id="linearGradient1362"
       gradientUnits="userSpaceOnUse"
       gradientTransform="translate(23.919103,-30.094482)"
       x1="56"
       y1="64"
       x2="64"
       y2="64" />
    <linearGradient
       inkscape:collect="always"
       xlink:href="#linearGradient7422"
       id="linearGradient1374"
       gradientUnits="userSpaceOnUse"
       gradientTransform="translate(-26.094482,19.919103)"
       x1="56"
       y1="64"
       x2="64"
       y2="64" />
    <linearGradient
       inkscape:collect="always"
       xlink:href="#linearGradient7422"
       id="linearGradient1376"
       gradientUnits="userSpaceOnUse"
       gradientTransform="translate(23.919103,-30.094482)"
       x1="56"
       y1="64"
       x2="64"
       y2="64" />
  </defs>
  <sodipodi:namedview
     pagecolor="#ffffff"
     bordercolor="#666666"
     borderopacity="1"
     objecttolerance="10"
     gridtolerance="10"
     guidetolerance="10"
     inkscape:pageopacity="0"
     inkscape:pageshadow="2"
     inkscape:window-width="1366"
     inkscape:window-height="706"
     id="namedview4"
     showgrid="true"
     inkscape:snap-page="true"
     inkscape:snap-global="true"
     inkscape:zoom="3.7251234"
     inkscape:cx="63.999742"
     inkscape:cy="64.000794"
     inkscape:window-x="0"
     inkscape:window-y="0"
     inkscape:window-maximized="1"
     inkscape:current-layer="svg2"
     inkscape:snap-smooth-nodes="true"
     showguides="false"
     inkscape:guide-bbox="true">
    <inkscape:grid
       type="xygrid"
       id="grid27"
       spacingx="8"
       spacingy="8"
       empspacing="2" />
    <sodipodi:guide
       position="51.972346,56"
       orientation="0,1"
       id="guide841"
       inkscape:locked="false" />
  </sodipodi:namedview>
  <g
     id="g1388">
    <path
       transform="matrix(1.218388,-0.0406562,0.0406562,1.218388,-15.722374,-7.0469286)"
       d="M 46.181641,7.4140625 A 6.4727375,6.4727375 0 0 0 41.544922,9.1542969 L 13.744141,35.128906 a 6.4727375,6.4727375 0 0 0 -2.050782,4.509766 l -1.291015,38.02539 a 6.4727375,6.4727375 0 0 0 1.740234,4.636719 l 25.97461,27.798829 a 6.4727375,6.4727375 0 0 0 4.509765,2.05078 l 38.025391,1.29102 a 6.4727375,6.4727375 0 0 0 4.636718,-1.74024 L 113.08789,85.726562 a 6.4727375,6.4727375 0 0 0 2.05078,-4.509765 l 1.29102,-38.023438 a 6.4727375,6.4727375 0 0 0 -1.74024,-4.636718 L 88.714844,10.755859 A 6.4727375,6.4727375 0 0 0 84.205078,8.7050781 Z"
       id="path1324"
       style="opacity:1;fill:url(#linearGradient1332);fill-opacity:1;stroke:none;stroke-width:3.77952766;stroke-linecap:round;stroke-linejoin:round;stroke-miterlimit:4;stroke-dasharray:none;stroke-dashoffset:0;stroke-opacity:1"
       inkscape:original="M 45.962891 13.882812 L 18.162109 39.857422 L 16.871094 77.882812 L 42.845703 105.68164 L 80.871094 106.97266 L 108.66992 80.998047 L 109.96094 42.974609 L 83.986328 15.173828 L 45.962891 13.882812 z "
       inkscape:radius="6.4720902"
       sodipodi:type="inkscape:offset" />
    <path
       sodipodi:type="star"
       style="opacity:1;fill:url(#linearGradient1322);fill-opacity:1;stroke:none;stroke-width:3.77952766;stroke-linecap:round;stroke-linejoin:round;stroke-miterlimit:4;stroke-dasharray:none;stroke-dashoffset:0;stroke-opacity:1"
       id="path885"
       sodipodi:sides="8"
       sodipodi:cx="63.416241"
       sodipodi:cy="60.428368"
       sodipodi:r1="49.709869"
       sodipodi:r2="45.92593"
       sodipodi:arg1="1.2120257"
       sodipodi:arg2="1.6047247"
       inkscape:flatsided="true"
       inkscape:rounded="0"
       inkscape:randomized="0"
       d="M 80.870539,106.97317 42.846148,105.68257 16.871439,77.882666 18.162043,39.858275 45.961942,13.883566 83.986333,15.17417 109.96104,42.974069 108.67044,80.99846 Z"
       transform="matrix(1.218388,-0.0406562,0.0406562,1.218388,-15.722374,-7.0469286)" />
    <g
       transform="matrix(1,0,0,-1,0,128)"
       id="g1366">
      <rect
         style="opacity:1;fill:url(#linearGradient1352);fill-opacity:1;stroke:none;stroke-width:8;stroke-linecap:round;stroke-linejoin:round;stroke-miterlimit:4;stroke-dasharray:none;stroke-dashoffset:0;stroke-opacity:1"
         id="rect1344"
         width="8"
         height="128"
         x="29.905518"
         y="19.919104"
         transform="rotate(-23)" />
      <rect
         y="-30.094481"
         x="79.919106"
         height="128"
         width="8"
         id="rect1358"
         style="opacity:1;fill:url(#linearGradient1362);fill-opacity:1;stroke:none;stroke-width:8;stroke-linecap:round;stroke-linejoin:round;stroke-miterlimit:4;stroke-dasharray:none;stroke-dashoffset:0;stroke-opacity:1"
         transform="rotate(23)" />
    </g>
    <g
       id="g1372"
       transform="rotate(90,64.000002,64)">
      <rect
         transform="rotate(-23)"
         y="19.919104"
         x="29.905518"
         height="128"
         width="8"
         id="rect1368"
         style="opacity:1;fill:url(#linearGradient1374);fill-opacity:1;stroke:none;stroke-width:8;stroke-linecap:round;stroke-linejoin:round;stroke-miterlimit:4;stroke-dasharray:none;stroke-dashoffset:0;stroke-opacity:1" />
      <rect
         transform="rotate(23)"
         style="opacity:1;fill:url(#linearGradient1376);fill-opacity:1;stroke:none;stroke-width:8;stroke-linecap:round;stroke-linejoin:round;stroke-miterlimit:4;stroke-dasharray:none;stroke-dashoffset:0;stroke-opacity:1"
         id="rect1370"
         width="8"
         height="128"
         x="79.919106"
         y="-30.094481" />
    </g>
    <path
       sodipodi:type="inkscape:offset"
       inkscape:radius="6.4720902"
       inkscape:original="M 45.962891 13.882812 L 18.162109 39.857422 L 16.871094 77.882812 L 42.845703 105.68164 L 80.871094 106.97266 L 108.66992 80.998047 L 109.96094 42.974609 L 83.986328 15.173828 L 45.962891 13.882812 z "
       style="opacity:1;fill:url(#linearGradient1340);fill-opacity:1;stroke:none;stroke-width:3.77952766;stroke-linecap:round;stroke-linejoin:round;stroke-miterlimit:4;stroke-dasharray:none;stroke-dashoffset:0;stroke-opacity:1"
       id="path1336"
       d="M 46.181641,7.4140625 A 6.4727375,6.4727375 0 0 0 41.544922,9.1542969 L 13.744141,35.128906 a 6.4727375,6.4727375 0 0 0 -2.050782,4.509766 l -1.291015,38.02539 a 6.4727375,6.4727375 0 0 0 1.740234,4.636719 l 25.97461,27.798829 a 6.4727375,6.4727375 0 0 0 4.509765,2.05078 l 38.025391,1.29102 a 6.4727375,6.4727375 0 0 0 4.636718,-1.74024 L 113.08789,85.726562 a 6.4727375,6.4727375 0 0 0 2.05078,-4.509765 l 1.29102,-38.023438 a 6.4727375,6.4727375 0 0 0 -1.74024,-4.636718 L 88.714844,10.755859 A 6.4727375,6.4727375 0 0 0 84.205078,8.7050781 Z"
       transform="matrix(0.76352625,-0.02547799,0.02547799,0.76352625,14.040347,19.476781)" />
    <path
       transform="matrix(0.69429613,-0.02316786,0.02316786,0.69429613,18.570258,23.513744)"
       d="M 80.870539,106.97317 42.846148,105.68257 16.871439,77.882666 18.162043,39.858275 45.961942,13.883566 83.986333,15.17417 109.96104,42.974069 108.67044,80.99846 Z"
       inkscape:randomized="0"
       inkscape:rounded="0"
       inkscape:flatsided="true"
       sodipodi:arg2="1.6047247"
       sodipodi:arg1="1.2120257"
       sodipodi:r2="45.92593"
       sodipodi:r1="49.709869"
       sodipodi:cy="60.428368"
       sodipodi:cx="63.416241"
       sodipodi:sides="8"
       id="path1338"
       style="opacity:1;fill:url(#linearGradient1342);fill-opacity:1;stroke:none;stroke-width:3.77952766;stroke-linecap:round;stroke-linejoin:round;stroke-miterlimit:4;stroke-dasharray:none;stroke-dashoffset:0;stroke-opacity:1"
       sodipodi:type="star" />
  </g>
</svg>
